X:1
T:Tota Pulchra Es
T:Anton Bruckner (1824-1896)
T:SATB a capella
T:For the Gloria Dei Schola
C:Anton Bruckner
%%score 1 2 3 4
L:1/8
Q:1/4=100
M:4/4
K:C
V:1 treble nm="Soprano" snm="S."
V:2 treble nm="Alto" snm="A."
V:3 treble-8 nm="Tenor" snm="T."
V:4 bass nm="Bass" snm="B."
V:1
"^, circa 3 min" z8 | z8 | z8 | z8 | G4 A4 | c2 c2 d2 cB | A4 G4 | A4 z4 | z8 | z8 | z8 | %11
w: ||||To- ta|pul- chra es Ma- *|ri- *|a.||||
 z4 z2 A2 | d3 d e4 | c2 B G A2 G2 | F4 E2 DE | E4 z4 | C4 C3/2 C/ C C | D6 D2 | ^C8- | C4 A2 A2 | %20
w: Et|ma- cu- la|o- ri- gi- na- lis|non est in *|te.|Tu glo- ri- a Je-|ru- sa-|lem.|* Tu lae-|
 ^c3 c A2 e2 | a3 a e2 e2 | ^f4 e4 | d4 ^c4 | B3 B A4 | G6 G2 | ^F4 z4 | z8 | z8 | z8 | c4 d2 e2 | %31
w: ti- ti- a, lae-|ti- ti- a, lae-|ti- *||* ti- a|Is- ra-|el.||||Tu ad- vo-|
 f4 e4 | e2 d4 c2- | c2 _B4 A2 | G6 A_B | A4 z4 | z8 | z8 | z8 | z8 | G4 A4 | c4 d2 cB | A4 G4 | %43
w: ca- ta|pec- * *|* * ca-|to- * *|rum.|||||O Ma-|ri- a, Ma- *|ri- *|
 A4 z4 | z8 | z8 | z8 | z8 | d4 e4 | d2 cA _B2 _A2 | _E6 F_G | F4 z4 | z8 | z8 | d3 d d2 d d | %55
w: a!|||||Ma- ter|cle- * * men- *|tis- si- *|ma.|||In- ter- ce- de pro|
 e4 e2 e2 | f3 f f2 e2 | e2 d4 c2 | B4 A3 B | c4 z2 F2 | G3/2 G/ G2 G2 AB | c6 B2 | z2 e4 d2 | %63
w: no- bis ad|Do- mi- num *|Je- * sum|Chri- * *|stum, ad|Do- mi- num, Je- sum *|Chri- stum,|In- ter-|
 d2 c2 B2 c2 | d2 cd e2 e2 | f3 f f4 | f2 e4 d2 | d2 ^c2 z2 f2 | f2 e4 d2- | d2 c4 _B2 | %70
w: ce- * de pro|no- * * bis ad|Do- mi- num|Je- * sum|Chri- stum, ad|Do- * *|* * mi-|
 _B2 A2 z4 | z8 | z4 B4 | B3 B B4 | c4 B4 | c6 B2 | c8- | c8 | B8- | B4 z4 |] %80
w: num, *||ad|Do- mi- num|Je- *|* sum|Chri-||stum.||
V:2
 z8 | z8 | z8 | z8 | G4 C4 | G2 G2 F2 G2 | E6 D2 | C4 z4 | z8 | z8 | z8 | z4 z2 A2 | F3 F E4 | %13
w: ||||To- ta|pul- chra es Ma-|ri- *|a.||||Et|ma- cu- la|
 E2 E E C2 E2 | D4 C2 A,2 | B,4 z4 | C4 C3/2 C/ C C | D6 D2 | A,8- | A,4 E2 E2 | A3 A E2 A2 | %21
w: o- ri- gi- na- lis|non est in|te.|Tu glo- ri- a Je-|ru- sa-|lem.|* Tu lae-|ti- ti- a, lae-|
 e3 e A2 ^c2 | A8 | ^F8 | A2 G G G2 ^F2 | ^F2 E^D E2 E2 | ^D4 z4 | z8 | z8 | z8 | E4 G2 G2 | %31
w: ti- ti- a, lae-|ti-||* * ti- a *|Is- * * * ra-|el.||||Tu ad- vo-|
 A4 G4 | F4 E4 | D4 C4 | !stemless!C8 | C4 z4 | z8 | z8 | z8 | z8 | G6 F2 | F2 E2 GF EG | %42
w: ca- ta|pec- *|* ca-|to-|rum.|||||O Ma-|ri- * a, * Ma- *|
 G2 F4 E2 | F4 z4 | z8 | z8 | z8 | z8 | F4 A4 | F4 _D2 D2 | _D4 C4 | _D4 z4 | z8 | z8 | %54
w: ri- * *|a!|||||Ma- ter|cle- men- *|tis- si-|ma.|||
 ^F3 F F2 F F | G4 G2 G2 | A3 A G4 | F4 E4 | E4 C2 F2 | G4 F4 | F3/2 F/ E2 D2 G2 | G2 F2 G4 | %62
w: In- ter- ce- de pro|no- bis ad|Do- mi- num|Je- sum|Chri- * *|stum, ad|Do- mi- num, Je- sum|Chri- * stum,|
 z2 G G F3 G | A2 A A A2 G2 | F3 F G2 GG | _B4 c2 BA | G3/2 G/ G2 F2 F2 | E2 E2 z2 A2 | G4 F4 | %69
w: In- ter- ce- *|* de pro no- bis|In- ter- ce- de pro|no- bis ad *|Do- mi- num Je- sum|Chri- stum, ad|Do- *|
 E4 D4 | C4 z4 | z8 | z4 E4 | E3 E E4 | !stemless!E8- | E6 E2 | !stemless!E8 | !stemless!^D8 | %78
w: * mi-|num,||ad|Do- mi- num|Je-|* sum|Chri-||
 E8- | E4 z4 |] %80
w: stum.||
V:3
 G4 A4 | c2 c2 d2 cB | A4 G4 | A4 z4 | G4 c4 | G2 G2 A2 G2 | c4 B4 | A4 z2 A2 | d3 d e4 | %9
w: To- ta|pul- chra es Ma- *|ri- *|a.|To- ta|pul- chra es Ma-|ri- *|a. Et|ma- cu- la|
 c2 B G A2 G2 | F4 E2 DE | E4 z2 A2 | A3 A c4 | G2 G B A2 c2 | A4 G2 A2 | ^G4 z4 | c4 c3/2 c/ c c | %17
w: o- ri- gi- na- lis|non est in *|te. Et|ma- cu- la|o- ri- gi- na- lis|non est in|te.|Tu glo- ri- a Je-|
 d6 d2 | e8- | e4 ^c2 c2 | e3 e ^c2 c2 | ^c3 c c2 e2 | e2 d4 ^c2 | ^c2 B4 A2 | d3 d d4 | B4 B2 B2 | %26
w: ru- sa-|lem.|* Tu lae-|ti- ti- a, lae-|ti- ti- a, lae-|ti- * *||* ti- a|Is- ra- el.|
 B4 B3/2 B/ A B | c3 c B2 c2 | d2 d d c4 | B4 z4 | c4 B2 c2 | c4 c4 | A8- | A4 F4 | F2 ED E4 | %35
w: Tu ho- no- ri- fi-|cen- ti- a *|po- pu- li no-|stri.|Tu ad- vo-|ca- ta|pec-|* ca-|to- * * *|
 F4 z4 | G4 A4 | c4 d2 cB | A4 G4 | A4 z4 | G4 d4 | G4 B2 AG | c4 B4 | c4 z4 | d4 e4 | %45
w: rum.|O Ma-|ri- a, Ma- *|ri- *|a!|O Ma-|ri- a, Ma- *|ri- *|a!|Vir- go|
 c2 BG A2 G2 | F4 E2 DE | E4 z4 | A4 ^c4 | d2 Ac _B2 F2 | _B4 _A4 | _A4 z4 | _B4 B2 c2 | d4 d4 | %54
w: pru- * * * den-|tis- * si- *|ma.|Ma- ter|cle- * * men- *|tis- si-|ma.|O- ra pro|no- bis.|
 A3 A A2 A A | c4 c2 c2 | c3 c c4 | A4 A4 | B4 c2 d2 | G4 z4 | z2 c2 c3/2 c/ B2 | A2 A2 G2 G2 | %62
w: In- ter- ce- de pro|no- bis ad|Do- mi- num|Je- sum|Chri- * *|stum,|ad Do- mi- num,|Je- sum Chri- stum,|
 z2 c B A2 A G | F2 fe d2 G2 | AGAF c2 Gc | d3 d A2 z2 | z2 c2 A2 A2 | A2 A2 z2 c2 | c4 A4- | %69
w: In- ter- ce- de pro|no- * * bis ad|Do- * * * * * *|* mi- num|Je- * sum|Chri- stum, ad|Do- *|
 A4 F4 | F4 z4 | z8 | z4 ^G4 | ^G3 G G4 | A4 ^G4 | B4 A2 ^G2 | !stemless!A8 | !stemless!^F8 | %78
w: * mi-|num,||ad|Do- mi- num|Je- *|* * sum|Chri-||
 ^G8- | G4 z4 |] %80
w: stum.||
V:4
 z8 | z8 | z8 | z8 | G,4 F,4 | E,2 E,2 D,2 E,2 | A,4 E,4 | F,4 z4 | z8 | z8 | z8 | z4 z2 A,2 | %12
w: ||||To- ta|pul- chra es Ma-|ri- *|a.||||Et|
 D,3 D, A,,4 | C,2 E, E, F,2 C,2 | D,4 E,2 F,2 | E,4 z4 | C,4 C,3/2 C,/ C, C, | _B,,6 B,,2 | %18
w: ma- cu- la|o- ri- gi- na- lis|non est in|te.|Tu glo- ri- a Je-|ru- sa-|
 A,,8- | A,,4 A,,2 A,,2 | E,3 E, A,2 E,2 | A,,3 A,, E,2 A,,2 | D,4 A,,4 | B,,4 ^F,,4 | %24
w: lem.|* Tu lae-|ti- ti- a, lae-|ti- ti- a, lae-|ti- *||
 G,,3 G,, D,4 | E,6 E,2 | B,,4 z4 | z8 | z8 | z8 | A,4 G,2 C,2 | F,,4 C,4 | D,4 A,,4 | _B,,4 F,,4 | %34
w: * ti- a|Is- ra-|el.||||Tu ad- vo-|ca- ta|pec- *|* ca-|
 !stemless!C,8 | F,,4 z4 | z8 | z8 | z8 | z8 | G,4 D,4 | C,4 G,,2 A,,E, | F,4 G,4 | F,4 z4 | z8 | %45
w: to-|rum.|||||O Ma-|ri- a, Ma- *|ri- *|a!||
 z8 | z8 | z8 | D,4 A,,4 | _B,,2 F,2 _G,2 _D,2 | _G,,4 _A,,4 | _D,4 z4 | z8 | z8 | %54
w: |||Ma- ter|cle- * men- *|tis- si-|ma.|||
 D,3 D, D,2 D, D, | C,4 C,2 C,2 | F,,3 F,, C,4 | D,4 A,,2 A,2 | A,2 G,4 F,2- | F,2 E,4 D,2 | %60
w: In- ter- ce- de pro|no- bis ad|Do- mi- num|Je- sum *|Chri- * *||
 C,2 z2 z4 | z8 | C,3 C, D,2 D, D, | F,4 z2 F, E, | D,4 C,4 | _B,,3 B,, F,,4 | C,4 D,4 | %67
w: stum||In- ter- ce- de pro|no- bis~ad *|Do- *|* mi- num|Je- sum|
 A,,3 G,, F,,2 F,,2 | C,4 D,4 | A,,4 _B,,4 | F,,4 F,,4 | F,,3 F,, F,,4 | !stemless!E,,8- | %73
w: Chri- stum, * ad|Do- *|* mi-|num, ad|Do- mi- num|Je-|
 E,,6 E,,2 | A,,4 E,4 | A,,6 E,2 | A,,8- | A,,8 | E,,8- | E,,4 z4 |] %80
w: * sum,|Je- *|* sum|Chri-||stum.||

